src/assets/outline/Trash.svg

<svg width="24" height="24" viewBox="0 0 24 24"  xmlns="http://www.w3.org/2000/svg">
<path d="M21.0002 6.73046C20.9802 6.73046 20.9502 6.73046 20.9202 6.73046C15.6302 6.20046 10.3502 6.00046 5.12016 6.53046L3.08016 6.73046C2.66016 6.77046 2.29016 6.47046 2.25016 6.05046C2.21016 5.63046 2.51016 5.27046 2.92016 5.23046L4.96016 5.03046C10.2802 4.49046 15.6702 4.70046 21.0702 5.23046C21.4802 5.27046 21.7802 5.64046 21.7402 6.05046C21.7102 6.44046 21.3802 6.73046 21.0002 6.73046Z" />
<path d="M8.49977 5.72C8.45977 5.72 8.41977 5.72 8.36977 5.71C7.96977 5.64 7.68977 5.25 7.75977 4.85L7.97977 3.54C8.13977 2.58 8.35977 1.25 10.6898 1.25H13.3098C15.6498 1.25 15.8698 2.63 16.0198 3.55L16.2398 4.85C16.3098 5.26 16.0298 5.65 15.6298 5.71C15.2198 5.78 14.8298 5.5 14.7698 5.1L14.5498 3.8C14.4098 2.93 14.3798 2.76 13.3198 2.76H10.6998C9.63977 2.76 9.61977 2.9 9.46977 3.79L9.23977 5.09C9.17977 5.46 8.85977 5.72 8.49977 5.72Z" />
<path d="M15.2099 22.7496H8.7899C5.2999 22.7496 5.1599 20.8196 5.0499 19.2596L4.3999 9.18959C4.3699 8.77959 4.6899 8.41959 5.0999 8.38959C5.5199 8.36959 5.8699 8.67959 5.8999 9.08959L6.5499 19.1596C6.6599 20.6796 6.6999 21.2496 8.7899 21.2496H15.2099C17.3099 21.2496 17.3499 20.6796 17.4499 19.1596L18.0999 9.08959C18.1299 8.67959 18.4899 8.36959 18.8999 8.38959C19.3099 8.41959 19.6299 8.76959 19.5999 9.18959L18.9499 19.2596C18.8399 20.8196 18.6999 22.7496 15.2099 22.7496Z" />
<path d="M13.6601 17.25H10.3301C9.92008 17.25 9.58008 16.91 9.58008 16.5C9.58008 16.09 9.92008 15.75 10.3301 15.75H13.6601C14.0701 15.75 14.4101 16.09 14.4101 16.5C14.4101 16.91 14.0701 17.25 13.6601 17.25Z" />
<path d="M14.5 13.25H9.5C9.09 13.25 8.75 12.91 8.75 12.5C8.75 12.09 9.09 11.75 9.5 11.75H14.5C14.91 11.75 15.25 12.09 15.25 12.5C15.25 12.91 14.91 13.25 14.5 13.25Z" />
</svg>

<?xml version="1.0" encoding="UTF-8"?>
<svg width="24" height="24" viewBox="0 0 24 24" xmlns="http://www.w3.org/2000/svg">
 <path d="m21 6.7305h-0.08c-5.29-0.53-10.57-0.73-15.8-0.2l-2.04 0.2c-0.42 0.04-0.79-0.26-0.83-0.68s0.26-0.78 0.67-0.82l2.04-0.2c5.32-0.54 10.71-0.33 16.11 0.2 0.41 0.04 0.71 0.41 0.67 0.82-0.03 0.39-0.36 0.68-0.74 0.68z"/>
 <path d="m8.4998 5.72c-0.04 0-0.08 0-0.13-0.01-0.4-0.07-0.68-0.46-0.61-0.86l0.22-1.31c0.16-0.96 0.38-2.29 2.71-2.29h2.62c2.34 0 2.56 1.38 2.71 2.3l0.22 1.3c0.07 0.41-0.21 0.8-0.61 0.86-0.41 0.07-0.8-0.21-0.86-0.61l-0.22-1.3c-0.14-0.87-0.17-1.04-1.23-1.04h-2.62c-1.06 0-1.08 0.14-1.23 1.03l-0.23 1.3c-0.06 0.37-0.38 0.63-0.74 0.63z"/>
 <path d="m15.21 22.75h-6.42c-3.49 0-3.63-1.93-3.74-3.49l-0.65-10.07c-0.03-0.41 0.29-0.77 0.7-0.8 0.42-0.02 0.77 0.29 0.8 0.7l0.65 10.07c0.11 1.52 0.15 2.09 2.24 2.09h6.42c2.1 0 2.14-0.57 2.24-2.09l0.65-10.07c0.03-0.41 0.39-0.72 0.8-0.7 0.41 0.03 0.73 0.38 0.7 0.8l-0.65 10.07c-0.11 1.56-0.25 3.49-3.74 3.49z"/>
 <path d="m13.66 17.25h-3.33c-0.41002 0-0.75002-0.34-0.75002-0.75s0.34-0.75 0.75002-0.75h3.33c0.41 0 0.75 0.34 0.75 0.75s-0.34 0.75-0.75 0.75z"/>
 <path d="m14.5 13.25h-5c-0.41 0-0.75-0.34-0.75-0.75s0.34-0.75 0.75-0.75h5c0.41 0 0.75 0.34 0.75 0.75s-0.34 0.75-0.75 0.75z"/>
</svg>
